src/assets/rapier.svg

<svg viewBox="0 0 156 97" xmlns="http://www.w3.org/2000/svg" xml:space="preserve" style="fill-rule:evenodd;clip-rule:evenodd;stroke-linecap:round;stroke-linejoin:round;stroke-miterlimit:1.5"><path d="M187.121 321.158s-3.021.541-4.925 2.697l-53.456.948-22.441-23.622 54.856 1.002c2.276 2.501 4.288 2.413 6.072.111l18.535.338s-2.837 3.914-2.063 8.626c.308 1.879 2.348 3.654 3.455 5.741l-.033 4.159Z" style="fill:none;stroke:#000;stroke-width:1.67px" transform="translate(-32.112 -264.334)"/><path d="M187.121 321.158s-3.021.541-4.925 2.697l-53.456.948-22.441-23.622 54.856 1.002c2.276 2.501 4.288 2.413 6.072.111l18.535.338s-2.837 3.914-2.063 8.626c.308 1.879 2.348 3.654 3.455 5.741l-.033 4.159Zm-12.512-.013c-.664 0-1.247-.117-1.749-.352a3.407 3.407 0 0 1-1.239-.959 4.137 4.137 0 0 1-.729-1.433 6.26 6.26 0 0 1-.243-1.774c0-.858.146-1.615.438-2.271a4.963 4.963 0 0 1 1.141-1.64c.47-.437 1-.769 1.591-.995a5.016 5.016 0 0 1 1.81-.341c.324 0 .62.033.887.098.267.064.514.137.741.218.243.081.477.178.704.292l1.36-.705.219.073c0 1.263.004 2.522.012 3.777.008 1.255.012 2.515.012 3.778 0 .647.276.955.826.923.13 0 .235-.021.316-.061.081-.04.162-.085.243-.134.065-.064.138-.121.218-.17l.243.146a2.991 2.991 0 0 1-.437.777 2.563 2.563 0 0 1-.607.523c-.243.154-.526.23-.85.23-.551 0-.94-.174-1.166-.522-.227-.348-.34-.83-.34-1.445v-.729c-.098.34-.239.672-.425.996a3.564 3.564 0 0 1-.693.862 3.296 3.296 0 0 1-.971.608c-.373.154-.81.23-1.312.23Zm-19.822-.607 1.288-.146c.469-.048.781-.141.935-.279.154-.138.231-.465.231-.984v-11.295c0-.243-.012-.453-.037-.632a.96.96 0 0 0-.158-.437c-.08-.113-.214-.21-.4-.291a3.16 3.16 0 0 0-.741-.195l-1.02-.17-.025-.413c.389 0 .701.004.935.012.235.009.442-.004.62-.036l3.255-.17a9.706 9.706 0 0 1 1.214-.073c1.863 0 3.268.275 4.215.826.947.551 1.421 1.514 1.421 2.891 0 .955-.243 1.708-.729 2.259-.486.55-1.222 1.06-2.21 1.53l2.672 4.688c.372.648.696 1.15.971 1.506.276.357.547.624.814.802.267.178.551.295.85.352.3.057.668.118 1.106.182v.438c-.34-.017-.713-.025-1.118-.025h-2.502c-.356 0-.623.008-.801.025l-3.693-6.851c-.259-.502-.664-.753-1.214-.753h-1.288v5.685c0 .388.077.672.231.85.154.178.425.316.814.413l1.19.291v.437a64.91 64.91 0 0 0-3.558-.097c-1.207 0-2.296.033-3.268.097v-.437Zm23.223-4.761c0-.55-.045-1.052-.134-1.506a3.169 3.169 0 0 0-.449-1.154 2.133 2.133 0 0 0-.814-.728c-.332-.171-.749-.256-1.251-.256-.34 0-.7.069-1.081.207a2.723 2.723 0 0 0-1.032.68c-.308.316-.563.721-.766 1.215-.202.494-.303 1.089-.303 1.785 0 .534.069 1.049.206 1.543.138.493.336.927.595 1.299.26.373.575.668.948.887.372.218.801.328 1.287.328.389 0 .749-.098 1.081-.292.332-.194.62-.465.862-.814.243-.348.442-.757.596-1.226.153-.47.238-.98.255-1.531v-.437Zm-18.632-3.158c3.239.114 4.859-.915 4.859-3.085 0-1.02-.353-1.834-1.057-2.441-.704-.607-1.688-.911-2.951-.911a7.522 7.522 0 0 0-.851.049v6.388Z" style="fill:#ebebeb;stroke:#000;stroke-width:.42px" transform="translate(-32.112 -264.334)"/><path d="M1322.84 720.472h-23.63s-7.25-6.539-11.81-7.086c-9.84-1.181-22.68-2.834-47.24 0l-11.81 7.086V696.85c27.07 7.556 51.03 7.42 72.04 0l22.45 23.622Z" style="fill:#b4f8bf" transform="translate(-1226.21 -660.003)"/><path d="M14.32 54.493 2.73 61.452a1.145 1.145 0 0 1-1.74-.983V36.847c0-.358.17-.696.45-.912.29-.217.66-.288 1-.191 12.61 3.517 24.53 5.357 35.79 5.555 12.69.224 24.54-1.638 35.57-5.532.43-.151.9-.036 1.21.29L97.45 59.68a1.141 1.141 0 0 1-.82 1.935H73c-.28 0-.55-.105-.77-.295 0 0-3.11-2.813-6.51-4.856-1.61-.967-3.27-1.776-4.66-1.944-6.03-.722-13.18-1.624-23.48-1.552-6.38.044-13.97.462-23.26 1.525Zm59.54-16.32c-11.07 3.815-22.96 5.642-35.67 5.418-11.01-.195-22.64-1.927-34.91-5.241v20.096L13.36 52.4l.46-.155c9.49-1.096 17.24-1.524 23.75-1.57 10.42-.071 17.66.839 23.76 1.57 1.66.199 3.66 1.105 5.57 2.255 2.9 1.745 5.61 4.022 6.53 4.824h20.53l-20.1-21.151Z"/><path d="m1293.04 709.281-57.62-1.176a.625.625 0 1 1 .03-1.25l57.87 1.182c.16.003.31.068.43.182l7.09 7.087c.24.244.24.64 0 .884a.633.633 0 0 1-.89 0l-6.91-6.909Z" style="fill-opacity:.26" transform="translate(-1226.21 -660.003)"/><path d="M1299.2 661.417s46.22 8.979 47.24 46.063c1.02 37.084-47.24 48.426-47.24 48.426-8.04-31.314-8.12-62.808 0-94.489Zm5.62 83.677c7.18-3.031 13.68-7.289 19.45-12.845 5.77-5.557 10.82-12.411 15.1-20.635 0 0-33.49 8.721-34.55 33.48ZM1306 674c7.18 3.031 13.68 7.29 19.45 12.846 5.78 5.556 10.82 12.411 15.1 20.634 0 0-33.49-8.72-34.55-33.48Z" style="fill:#d8d2ee;fill-opacity:.76" transform="translate(-1226.21 -660.003)"/><path d="M73.15.596a.834.834 0 0 0-.97.612c-4.06 15.863-6.08 31.68-6.08 47.45-.01 15.864 2.03 31.68 6.08 47.452.11.439.56.708 1 .604 0 0 23.91-5.631 37.92-21.866 6.06-7.028 10.28-16.027 9.96-27.394-.3-11.128-4.6-19.776-10.51-26.441C96.47 5.137 73.15.596 73.15.596Zm.45 1.802c-3.9 15.466-5.83 30.885-5.84 46.26 0 15.455 1.95 30.865 5.83 46.23 4.19-1.117 24.06-7.006 36.24-21.13 5.82-6.736 9.87-15.361 9.57-26.258-.38-13.634-6.99-23.388-15.11-30.261C92.34 7.116 77.15 3.207 73.6 2.398Zm4.18 82.658a.82.82 0 0 0 .35.72c.24.163.54.194.8.083a63.683 63.683 0 0 0 10.46-5.592 64.907 64.907 0 0 0 9.25-7.421c3.03-2.915 5.86-6.182 8.49-9.812 2.43-3.365 4.69-7.041 6.77-11.038a.828.828 0 0 0-.09-.904.826.826 0 0 0-.86-.287s-16.45 4.29-26.82 15.357c-4.61 4.909-8.02 11.139-8.35 18.894Zm33.7-32.074c-4.52 1.454-16.17 5.825-24.14 14.32-4.07 4.346-7.18 9.78-7.81 16.479a61.915 61.915 0 0 0 8.94-4.905c3.18-2.1 6.19-4.507 9.01-7.231a70.61 70.61 0 0 0 8.29-9.588 83.807 83.807 0 0 0 5.71-9.075ZM80.11 13.229a.815.815 0 0 0-.79.084.805.805 0 0 0-.36.72c.33 7.755 3.74 13.985 8.35 18.894 10.37 11.067 26.82 15.357 26.82 15.357.32.083.66-.03.86-.287a.829.829 0 0 0 .09-.904c-2.08-3.997-4.34-7.674-6.77-11.038-2.63-3.631-5.46-6.898-8.49-9.812a64.838 64.838 0 0 0-9.25-7.421 63.612 63.612 0 0 0-10.46-5.593Zm.6 2.078c.63 6.699 3.74 12.134 7.81 16.48 7.97 8.495 19.63 12.865 24.15 14.32a85.329 85.329 0 0 0-5.72-9.075 71.206 71.206 0 0 0-8.28-9.59 63.318 63.318 0 0 0-9.02-7.23 61.915 61.915 0 0 0-8.94-4.905Z"/></svg>

<?xml version="1.0" encoding="UTF-8" standalone="no"?>
<!DOCTYPE svg PUBLIC "-//W3C//DTD SVG 1.1//EN" "http://www.w3.org/Graphics/SVG/1.1/DTD/svg11.dtd">
<svg width="100%" height="100%" viewBox="0 0 156 97" version="1.1" xmlns="http://www.w3.org/2000/svg" xmlns:xlink="http://www.w3.org/1999/xlink" xml:space="preserve" xmlns:serif="http://www.serif.com/" style="fill-rule:evenodd;clip-rule:evenodd;stroke-linecap:round;stroke-linejoin:round;stroke-miterlimit:1.5;">
    <g transform="matrix(1,0,0,1,-28,-286)">
        <g transform="matrix(1,0,0,1,0,-19.3071)">
            <g transform="matrix(1,0,0,1,-4.11182,40.9729)">
                <path d="M187.121,321.158C187.121,321.158 184.1,321.699 182.196,323.855L128.74,324.803L106.299,301.181L161.155,302.183C163.431,304.684 165.443,304.596 167.227,302.294L185.762,302.632C185.762,302.632 182.925,306.546 183.699,311.258C184.007,313.137 186.047,314.912 187.154,316.999L187.121,321.158Z" style="fill:none;stroke:black;stroke-width:1.67px;"/>
            </g>
            <g transform="matrix(1,0,0,1,-4.11182,40.9729)">
                <path d="M187.121,321.158C187.121,321.158 184.1,321.699 182.196,323.855L128.74,324.803L106.299,301.181L161.155,302.183C163.431,304.684 165.443,304.596 167.227,302.294L185.762,302.632C185.762,302.632 182.925,306.546 183.699,311.258C184.007,313.137 186.047,314.912 187.154,316.999L187.121,321.158ZM174.609,321.145C173.945,321.145 173.362,321.028 172.86,320.793C172.358,320.558 171.945,320.239 171.621,319.834C171.297,319.429 171.054,318.951 170.892,318.401C170.73,317.85 170.649,317.259 170.649,316.627C170.649,315.769 170.795,315.012 171.087,314.356C171.378,313.7 171.759,313.154 172.228,312.716C172.698,312.279 173.228,311.947 173.819,311.721C174.411,311.494 175.014,311.38 175.629,311.38C175.953,311.38 176.249,311.413 176.516,311.478C176.783,311.542 177.03,311.615 177.257,311.696C177.5,311.777 177.734,311.874 177.961,311.988L179.321,311.283L179.54,311.356C179.54,312.619 179.544,313.878 179.552,315.133C179.56,316.388 179.564,317.648 179.564,318.911C179.564,319.558 179.84,319.866 180.39,319.834C180.52,319.834 180.625,319.813 180.706,319.773C180.787,319.733 180.868,319.688 180.949,319.639C181.014,319.575 181.087,319.518 181.167,319.469L181.41,319.615C181.297,319.907 181.151,320.166 180.973,320.392C180.811,320.587 180.609,320.761 180.366,320.915C180.123,321.069 179.84,321.145 179.516,321.145C178.965,321.145 178.576,320.971 178.35,320.623C178.123,320.275 178.01,319.793 178.01,319.178L178.01,318.449C177.912,318.789 177.771,319.121 177.585,319.445C177.398,319.769 177.168,320.056 176.892,320.307C176.617,320.558 176.293,320.761 175.921,320.915C175.548,321.069 175.111,321.145 174.609,321.145ZM154.787,320.538L156.075,320.392C156.544,320.344 156.856,320.251 157.01,320.113C157.164,319.975 157.241,319.648 157.241,319.129L157.241,307.834C157.241,307.591 157.229,307.381 157.204,307.202C157.18,307.024 157.127,306.878 157.046,306.765C156.966,306.652 156.832,306.555 156.646,306.474C156.459,306.393 156.212,306.328 155.905,306.279L154.885,306.109L154.86,305.696C155.249,305.696 155.561,305.7 155.795,305.708C156.03,305.717 156.237,305.704 156.415,305.672L159.67,305.502C160.059,305.453 160.463,305.429 160.884,305.429C162.747,305.429 164.152,305.704 165.099,306.255C166.046,306.806 166.52,307.769 166.52,309.146C166.52,310.101 166.277,310.854 165.791,311.405C165.305,311.955 164.569,312.465 163.581,312.935L166.253,317.623C166.625,318.271 166.949,318.773 167.224,319.129C167.5,319.486 167.771,319.753 168.038,319.931C168.305,320.109 168.589,320.226 168.888,320.283C169.188,320.34 169.556,320.401 169.994,320.465L169.994,320.903C169.654,320.886 169.281,320.878 168.876,320.878L166.374,320.878C166.018,320.878 165.751,320.886 165.573,320.903L161.88,314.052C161.621,313.55 161.216,313.299 160.666,313.299L159.378,313.299L159.378,318.984C159.378,319.372 159.455,319.656 159.609,319.834C159.763,320.012 160.034,320.15 160.423,320.247L161.613,320.538L161.613,320.975C160.447,320.911 159.261,320.878 158.055,320.878C156.848,320.878 155.759,320.911 154.787,320.975L154.787,320.538ZM178.01,315.777C178.01,315.227 177.965,314.725 177.876,314.271C177.787,313.818 177.637,313.433 177.427,313.117C177.216,312.801 176.945,312.559 176.613,312.389C176.281,312.218 175.864,312.133 175.362,312.133C175.022,312.133 174.662,312.202 174.281,312.34C173.9,312.478 173.556,312.704 173.249,313.02C172.941,313.336 172.686,313.741 172.483,314.235C172.281,314.729 172.18,315.324 172.18,316.02C172.18,316.554 172.249,317.069 172.386,317.563C172.524,318.056 172.722,318.49 172.981,318.862C173.241,319.235 173.556,319.53 173.929,319.749C174.301,319.967 174.73,320.077 175.216,320.077C175.605,320.077 175.965,319.979 176.297,319.785C176.629,319.591 176.917,319.32 177.159,318.971C177.402,318.623 177.601,318.214 177.755,317.745C177.908,317.275 177.993,316.765 178.01,316.214L178.01,315.777ZM159.378,312.619C162.617,312.733 164.237,311.704 164.237,309.534C164.237,308.514 163.884,307.7 163.18,307.093C162.476,306.486 161.492,306.182 160.229,306.182C160.099,306.182 159.961,306.186 159.816,306.194C159.67,306.202 159.524,306.215 159.378,306.231L159.378,312.619Z" style="fill:rgb(235,235,235);stroke:black;stroke-width:0.42px;"/>
            </g>
            <g transform="matrix(1,0,0,1,-1198.21,-354.696)">
                <path d="M1322.84,720.472L1299.21,720.472C1299.21,720.472 1291.96,713.933 1287.4,713.386C1277.56,712.205 1264.72,710.552 1240.16,713.386L1228.35,720.472L1228.35,696.85C1255.42,704.406 1279.38,704.27 1300.39,696.85L1322.84,720.472Z" style="fill:rgb(180,248,191);"/>
                <path d="M1240.53,714.496L1228.94,721.455C1228.58,721.667 1228.14,721.673 1227.78,721.47C1227.42,721.266 1227.2,720.885 1227.2,720.472L1227.2,696.85C1227.2,696.492 1227.37,696.154 1227.65,695.938C1227.94,695.721 1228.31,695.65 1228.65,695.747C1241.26,699.264 1253.18,701.104 1264.44,701.302C1277.13,701.526 1288.98,699.664 1300.01,695.77C1300.44,695.619 1300.91,695.734 1301.22,696.061L1323.66,719.683C1323.98,720.015 1324.07,720.504 1323.89,720.924C1323.71,721.345 1323.29,721.618 1322.84,721.618L1299.21,721.618C1298.93,721.618 1298.66,721.513 1298.44,721.323C1298.44,721.323 1295.33,718.51 1291.93,716.467C1290.32,715.5 1288.66,714.691 1287.27,714.523C1281.24,713.801 1274.09,712.899 1263.79,712.971C1257.41,713.015 1249.82,713.433 1240.53,714.496ZM1300.07,698.176C1289,701.991 1277.11,703.818 1264.4,703.594C1253.39,703.399 1241.76,701.667 1229.49,698.353L1229.49,718.449L1239.57,712.403L1240.03,712.248C1249.52,711.152 1257.27,710.724 1263.78,710.679C1274.2,710.607 1281.44,711.517 1287.54,712.248C1289.2,712.447 1291.2,713.353 1293.11,714.503C1296.01,716.248 1298.72,718.525 1299.64,719.327L1320.17,719.327L1300.07,698.176Z"/>
            </g>
            <g transform="matrix(1,0,0,1,-1198.21,-354.696)">
                <path d="M1293.04,709.281L1235.42,708.105C1235.08,708.098 1234.8,707.812 1234.81,707.468C1234.82,707.123 1235.1,706.848 1235.45,706.855L1293.32,708.037C1293.48,708.04 1293.63,708.105 1293.75,708.219L1300.84,715.306C1301.08,715.55 1301.08,715.946 1300.84,716.19C1300.59,716.434 1300.2,716.434 1299.95,716.19L1293.04,709.281Z" style="fill-opacity:0.26;"/>
            </g>
            <g transform="matrix(1,0,0,1,-1198.21,-354.696)">
                <path d="M1299.2,661.417C1299.2,661.417 1345.42,670.396 1346.44,707.48C1347.46,744.564 1299.2,755.906 1299.2,755.906C1291.16,724.592 1291.08,693.098 1299.2,661.417ZM1304.82,745.094C1312,742.063 1318.5,737.805 1324.27,732.249C1330.04,726.692 1335.09,719.838 1339.37,711.614C1339.37,711.614 1305.88,720.335 1304.82,745.094ZM1306,674C1313.18,677.031 1319.68,681.29 1325.45,686.846C1331.23,692.402 1336.27,699.257 1340.55,707.48C1340.55,707.48 1307.06,698.76 1306,674Z" style="fill:rgb(216,210,238);fill-opacity:0.76;"/>
                <path d="M1299.36,660.599C1298.92,660.515 1298.5,660.783 1298.39,661.211C1294.33,677.074 1292.31,692.891 1292.31,708.662C1292.3,724.525 1294.34,740.342 1298.39,756.113C1298.5,756.552 1298.95,756.821 1299.39,756.717C1299.39,756.717 1323.3,751.086 1337.31,734.851C1343.37,727.823 1347.59,718.824 1347.27,707.457C1346.97,696.329 1342.67,687.681 1336.76,681.016C1322.68,665.14 1299.36,660.599 1299.36,660.599ZM1299.81,662.401C1295.91,677.867 1293.98,693.286 1293.97,708.662C1293.97,724.116 1295.92,739.526 1299.8,754.891C1303.99,753.774 1323.86,747.885 1336.04,733.762C1341.86,727.025 1345.91,718.4 1345.61,707.503C1345.23,693.869 1338.62,684.115 1330.5,677.242C1318.55,667.119 1303.36,663.21 1299.81,662.401ZM1303.99,745.059C1303.97,745.344 1304.11,745.616 1304.34,745.779C1304.58,745.942 1304.88,745.973 1305.14,745.862C1308.81,744.316 1312.3,742.455 1315.6,740.27C1318.86,738.114 1321.95,735.644 1324.85,732.849C1327.88,729.934 1330.71,726.667 1333.34,723.037C1335.77,719.672 1338.03,715.996 1340.11,711.999C1340.26,711.707 1340.23,711.352 1340.02,711.095C1339.82,710.837 1339.48,710.725 1339.16,710.808C1339.16,710.808 1322.71,715.098 1312.34,726.165C1307.73,731.074 1304.32,737.304 1303.99,745.059ZM1337.69,712.985C1333.17,714.439 1321.52,718.81 1313.55,727.305C1309.48,731.651 1306.37,737.086 1305.74,743.784C1308.86,742.391 1311.84,740.758 1314.68,738.879C1317.86,736.779 1320.87,734.372 1323.69,731.648C1326.65,728.8 1329.42,725.607 1331.98,722.06C1334.01,719.257 1335.92,716.234 1337.69,712.985ZM1306.32,673.232C1306.06,673.121 1305.76,673.153 1305.53,673.316C1305.29,673.479 1305.15,673.75 1305.17,674.036C1305.5,681.791 1308.91,688.021 1313.52,692.93C1323.89,703.997 1340.34,708.287 1340.34,708.287C1340.66,708.37 1341,708.257 1341.2,708C1341.41,707.742 1341.44,707.388 1341.29,707.096C1339.21,703.099 1336.95,699.422 1334.52,696.058C1331.89,692.427 1329.06,689.16 1326.03,686.246C1323.13,683.451 1320.04,680.98 1316.78,678.825C1313.48,676.639 1309.99,674.778 1306.32,673.232ZM1306.92,675.31C1307.55,682.009 1310.66,687.444 1314.73,691.79C1322.7,700.285 1334.36,704.655 1338.88,706.11C1337.1,702.861 1335.19,699.837 1333.16,697.035C1330.6,693.487 1327.83,690.294 1324.88,687.446C1322.05,684.723 1319.04,682.315 1315.86,680.215C1313.02,678.336 1310.04,676.703 1306.92,675.31Z"/>
            </g>
        </g>
    </g>
</svg>
